archdroid-icon-theme/Archdroid-BlueGrey/apps/scalable/system-file-manager-fedora.svg

<?xml version="1.0" encoding="UTF-8" standalone="no"?>
<svg
   xmlns:dc="http://purl.org/dc/elements/1.1/"
   xmlns:cc="http://creativecommons.org/ns#"
   xmlns:rdf="http://www.w3.org/1999/02/22-rdf-syntax-ns#"
   xmlns:svg="http://www.w3.org/2000/svg"
   xmlns="http://www.w3.org/2000/svg"
   xmlns:sodipodi="http://sodipodi.sourceforge.net/DTD/sodipodi-0.dtd"
   xmlns:inkscape="http://www.inkscape.org/namespaces/inkscape"
   fill="#607D8B"
   width="48"
   height="48"
   viewBox="0 0 48 48"
   id="svg2"
   version="1.1"
   inkscape:version="0.91 r13725"
   sodipodi:docname="system-file-manager-fedora-color.svg">
  <metadata
     id="metadata10">
    <rdf:RDF>
      <cc:Work
         rdf:about="">
        <dc:format>image/svg+xml</dc:format>
        <dc:type
           rdf:resource="http://purl.org/dc/dcmitype/StillImage" />
      </cc:Work>
    </rdf:RDF>
  </metadata>
  <defs
     id="defs8" />
  <sodipodi:namedview
     pagecolor="#ffffff"
     bordercolor="#666666"
     borderopacity="1"
     objecttolerance="10"
     gridtolerance="10"
     guidetolerance="10"
     inkscape:pageopacity="0"
     inkscape:pageshadow="2"
     inkscape:window-width="1366"
     inkscape:window-height="713"
     id="namedview6"
     showgrid="false"
     inkscape:snap-bbox="true"
     inkscape:snap-bbox-edge-midpoints="false"
     inkscape:snap-bbox-midpoints="true"
     inkscape:snap-object-midpoints="true"
     inkscape:zoom="4.880815150397952"
     inkscape:cx="22.45766642185873"
     inkscape:cy="5.773214937111614"
     inkscape:window-x="0"
     inkscape:window-y="30"
     inkscape:window-maximized="1"
     inkscape:current-layer="svg2"
     inkscape:bbox-nodes="true"
     inkscape:bbox-paths="true"
     inkscape:object-paths="true"
     inkscape:snap-smooth-nodes="true"
     inkscape:object-nodes="true"
     inkscape:snap-intersection-paths="true" />
  <path
     style="fill:#294172;fill-opacity:1"
     d="M 20 5 L 16 9 L 16 13 L 8 13 C 5.79 13 4.01953125 14.79 4.01953125 17 L 4 39 C 4 41.21 5.790000000000001 43 8 43 L 40 43 C 42.21 43 44 41.21 44 39 L 44 17 C 44 14.79 42.21 13 40 13 L 32 13 L 32 9 L 28 5 L 20 5 z M 20 9 L 28 9 L 28 13 L 20 13 L 20 9 z "
     id="path4174" />
  <g
     transform="matrix(0.0866817876117273,0,0,0.0907052949652692,-6.935791241112151,32.72215457185247)"
     id="g4182">
    <path
       style="fill:none;stroke:#3c6eb4;stroke-width:29.2099990845"
       id="path4184"
       d="m 303.9744411536469,-52.10776939472444 c 0,0 47.8447510000001,0 47.8447510000001,0 0,0 0,47.844780000000014 0,47.844780000000014 0,26.410289999999999 -21.43445,47.844729999999998 -47.8447510000001,47.844729999999998 -26.41031,0 -47.8447589999999,-21.43444 -47.8447589999999,-47.844729999999998 0,-26.410310000000013 21.4344490000001,-47.844780000000021 47.8447589999999,-47.844780000000021 z"
       inkscape:connector-curvature="0" />
    <path
       inkscape:connector-curvature="0"
       d="m 399.4333731536471,-52.0146893947244 c 0,0 -47.844751,0 -47.844751,0 0,0 0,-47.84478000000002 0,-47.84478000000002 0,-26.41028999999999 21.4344499999999,-47.84473 47.8447509999999,-47.84473 26.41031,0 47.8447590000001,21.43444 47.8447590000001,47.84473 0,26.41031000000001 -21.4344490000002,47.84478000000002 -47.8447590000001,47.84478000000002 z"
       id="use4186"
       style="fill:none;stroke:#3c6eb4;stroke-width:29.2099990845" />
    <path
       style="fill:#ffffff"
       id="path4188"
       d="m 366.455552153647,-66.67609939472443 0,62.346179999999989 c 0,34.504019999999997 -27.97537,62.480000000000032 -62.48061,62.480000000000032 -5.23494,0 -8.9564900000001,-0.59100999999999 -13.80235,-1.85770000000001 -7.06595,-1.84911999999999 -12.84046,-7.64252999999999 -12.84286,-14.38111 0,-8.14513 5.91236,-14.06990000000002 14.75029,-14.06990000000002 4.20637,0 5.7326699999999,0.80764999999998 11.89492,0.80764999999998 18.1916100000001,4e-14 32.94764,-14.73518999999994 32.97955,-32.926789999999272 l 0,-28.656570000000677 c 0,-2.56774999999999 -2.08663,-4.64824999999999 -4.6586699999999,-4.64824999999999 l -21.66521,-0.00428 c -8.07212,0 -14.5940100000001,-6.43843000000002 -14.5940100000001,-14.53266 -0.00431,-8.14456000000001 6.5888,-14.55656999999996 14.7480799999999,-14.55656999999996"
       inkscape:connector-curvature="0" />
    <path
       inkscape:connector-curvature="0"
       d="m 336.952272153647,-37.44634939472445 0,-62.34617999999998 c 0,-34.50401999999997 27.97537,-62.48000000000008 62.48061,-62.48000000000008 5.2349400000001,0 8.95649,0.5910100000001 13.8023499999999,1.8577 7.0659499999999,1.84912 12.84046,7.64253 12.8428599999999,14.3811100000001 0,8.1451299999999 -5.91236,14.0699 -14.75029,14.0699 -4.2063699999999,0 -5.7326699999998,-0.80765 -11.8949199999998,-0.80765 -18.19161,-1e-13 -32.9476400000001,14.73519 -32.97955,32.92678999999997 l 0,28.65656999999999 c 0,2.56774999999999 2.08663,4.64824999999999 4.65867,4.64824999999999 l 21.66521,0.00428 c 8.07212,0 14.59401,6.43843000000002 14.59401,14.53265999999999 0.00431,8.14455999999976 -6.5888,14.55656999999975 -14.74808,14.55656999999975"
       id="use4190"
       style="fill:#ffffff" />
    <path
       style="fill:#3c6eb4"
       id="path4192"
       d="m 470.5027121536471,49.37892060527558 c 0,0 4e-5,-5.53139 4e-5,-5.53139 l -2.5285300000001,5.79776 c 0,0 -2.46141,-5.79776 -2.46141,-5.79776 l 4.700000001e-4,5.53139 -1.4182999999998,0 0,-8.73492 1.48704,0 c 0,0 2.4339699999999,5.58051000000001 2.4339699999999,5.58051000000001 l 2.39711,-5.58051000000001 1.5054400000001,0 0,8.73492 -1.4158300000001,0 z m -10.3330200000001,-7.27183999999999 0,7.27183999999999 -1.4821300000001,0 0,-7.27183999999999 -2.4848799999999,0 0,-1.46308000000001 6.4494599999999,0 0,1.46308000000001"
       inkscape:connector-curvature="0" />
  </g>
</svg>

<svg xmlns="http://www.w3.org/2000/svg" fill="#607D8B" viewBox="0 0 48 48"><path d="m20 5l-4 4v4h-8c-2.21 0-3.98 1.79-3.98 4l-.02 22c0 2.21 1.79 4 4 4h32c2.21 0 4-1.79 4-4v-22c0-2.21-1.79-4-4-4h-8v-4l-4-4h-8m0 4h8v4h-8v-4" fill="#294172"/><g transform="matrix(.08668 0 0 .09071-6.936 32.722)"><g fill="none" stroke="#3c6eb4" stroke-width="29.21"><path d="m303.97-52.11c0 0 47.845 0 47.845 0 0 0 0 47.845 0 47.845 0 26.41-21.434 47.845-47.845 47.845-26.41 0-47.845-21.434-47.845-47.845 0-26.41 21.434-47.845 47.845-47.845z"/><path d="m399.43-52.01c0 0-47.845 0-47.845 0 0 0 0-47.845 0-47.845 0-26.41 21.434-47.845 47.845-47.845 26.41 0 47.845 21.434 47.845 47.845 0 26.41-21.434 47.845-47.845 47.845z"/></g><g fill="#fff"><path d="m366.46-66.68v62.35c0 34.504-27.975 62.48-62.48 62.48-5.235 0-8.956-.591-13.802-1.858-7.07-1.849-12.84-7.643-12.843-14.381 0-8.145 5.912-14.07 14.75-14.07 4.206 0 5.733.808 11.895.808 18.19 0 32.948-14.735 32.98-32.927v-28.657c0-2.568-2.087-4.648-4.659-4.648l-21.665-.004c-8.07 0-14.594-6.438-14.594-14.533-.004-8.145 6.589-14.557 14.748-14.557"/><path d="m336.95-37.446v-62.35c0-34.504 27.975-62.48 62.48-62.48 5.235 0 8.956.591 13.802 1.858 7.07 1.849 12.84 7.643 12.843 14.381 0 8.145-5.912 14.07-14.75 14.07-4.206 0-5.733-.808-11.895-.808-18.19 0-32.948 14.735-32.98 32.927v28.657c0 2.568 2.087 4.648 4.659 4.648l21.665.004c8.07 0 14.594 6.438 14.594 14.533.004 8.145-6.589 14.557-14.748 14.557"/></g><path d="m470.5 49.38c0 0 0-5.531 0-5.531l-2.529 5.798c0 0-2.461-5.798-2.461-5.798v5.531h-1.418v-8.735h1.487c0 0 2.434 5.581 2.434 5.581l2.397-5.581h1.505v8.735h-1.416m-10.333-7.272v7.272h-1.482v-7.272h-2.485v-1.463h6.449v1.463" fill="#3c6eb4"/></g></svg>
